!!!!SEGMENT: 010-1b-Sm-010.krn
!!!COM: Chopin, Fryderyk
!!!OTL: Etude No. 10
!!!OPS: Op. 10
!!!PTL: Etudes Pour le Piano
!!!PPR: M. Schlesinger
!!!PPP: Paris
!!!NIFC-rismID: 300605133
!!!NIFC-shelfmark: PL-Wbfc 1628/n
!!!OMD: [quarter-dot] = 152.
!!!OMD: Vivace assai.
**kern	**fing	**kern	**fing	**dynam
*part1	*	*part1	*	*part1
*staff2	*	*staff1	*	*
*clefF4	*	*clefG2	*	*
*k[b-e-a-d-]	*	*k[b-e-a-d-]	*	*
*A-:	*	*A-:	*	*
*M12/8	*	*M12/8	*	*
*MM228	*	*MM228	*	*
8r	.	(>8e-	.	.
=1	=1	=1	=1	=1
*^	*	*	*	*
*ped	*	*	*	*	*
!LO:TX:b:t=P:znak pedalizacji przed nutą:problem	!	!	!	!	!
4.rfyy	(>8AA-L	.	8a-L	.	.
.	.	.	.	.	<
!LO:TX:b:B:t=Legato	!	!	!	!	!
.	8c	.	(>8aa- 8cc	2 5	.
.	8A-	.	8b-J)	1	.
*	*	*^	*	*	*
!	!LO:N:vis=2	!	!	!	!	!
2E-	8E-	.	4	(>8bb-^L 8dd-	2 5	.
*	*	*v	*v	*	*	*
.	8e-	.	8bn)	.	.
.	8A-J)	.	(>8bbnJ 8ddn	.	.
.	(>8AA-'>L	.	8ccL)	.	.
4rfyy	8c	.	(>8ccc 8ee-	.	.
.	8A-	.	8cc#XJ)	1	.
!LO:N:vis=2	!LO:N:vis=2	!	!	!	!
4E-	8E-	.	(>8ccc#X^L 8een	.	.
.	8e-	.	8ddn)	.	.
*Xped	*	*	*	*	*
8ryy	8A-J)	.	(>8dddnJ 8ff	.	[
=2	=2	=2	=2	=2	=2
*ped	*	*	*	*	*
4.ryy	8AA-L	.	8ee-L)	.	.
.	8d-	.	(>8eee- 8gg	.	.
.	8G	.	8ffJ)	.	.
!	!LO:N:vis=2	!	!	!	!
2E-	8E-	.	(>8fff^L 8aa-	.	.
*Xped	*	*	*	*	*
.	8e-	.	8ee-)	.	.
!	!	!	!LO:TX:a:t=P:niektóre akcenty słabo widoczne, jakby wymazane:problem	!	!
.	8GJ	.	(>8eee-^J 8gg	.	.
*ped	*	*	*	*	*
.	8AA-L	.	8ccL)	.	.
4rfyy	8c	.	8ccc^ 8ee-	.	.
.	8A-	.	8b-J	.	.
!LO:N:vis=2	!LO:N:vis=2	!	!	!	!
4E-	8E-	.	8bb-^L 8dd-	.	.
.	8e-	.	8cc	.	.
*Xped	*	*	*	*	*
8ryy	8A-J	.	8ccc^J 8ee-	.	.
=3	=3	=3	=3	=3	=3
*ped	*	*	*	*	*
4.ryy	8AA-L	.	8b-L	.	>
.	8d-	.	8bb-^ 8dd-	.	.
.	8G	.	8ccJ	.	.
!	!LO:N:vis=2	!	!	!	!
2E-	8E-	.	8ccc^L 8ee-	.	.
*Xped	*	*	*	*	*
.	8e-	.	8g	.	.
.	8GJ	.	8ggJ 8b-	.	.
*ped	*	*	*	*	*
.	8AA-L	.	8a-L	.	.
4rfyy	8c	.	8aa-^ 8cc	.	.
.	8A-	.	8gJ	.	.
!LO:N:vis=2	!LO:N:vis=2	!	!	!	!
4E-	8E-	.	8gg^L 8b-	.	.
.	8e-	.	8a-	.	]
*Xped	*	*	*	*	*
8ryy	8A-J	.	8aa-^J 8cc	.	.
!!LO:LB:g=original
=4	=4	=4	=4	=4	=4
*ped	*	*	*	*	*
4.ryy	8BB-L	.	8fL\	.	.
.	8dn	.	8ff^ 8a-	.	.
.	8B-	.	8gJ	.	.
4A-	8A-	.	8gg^L 8b-	.	.
.	8d	.	8f	.	.
*Xped	*	*	*	*	*
2.rgyy	8B-J	.	8ff^J 8a-	.	.
*ped	*	*	*	*	*
.	8EE-L	.	8f-XL\	.	.
.	8d-X	.	8ff-X^ 8g	.	.
.	8B-	.	8e-J	.	.
.	8E-	.	8ee-^L 8g	.	.
.	8d-	.	8g	.	.
8rfyy	8B-J	.	8ggJ 8b-	.	.
=5	=5	=5	=5	=5	=5
4.rfyy	8AA-L	.	8a-L	.	.
.	8c	.	8aa-^ 8cc	.	.
.	8A-	.	8b-J	.	.
!	!LO:N:vis=2	!	!	!	!
2E-	8E-	.	8bb-^L 8dd-	.	.
.	.	.	.	.	<
.	8e-	.	8bn	.	.
.	8A-J	.	8bbnyJ^ 8ddn	.	.
.	8AA-L	.	8ccL	.	.
4rgyy	8c	.	8ccc^ 8ee-	.	.
.	8A-	.	8cc#XJ	.	.
!LO:N:vis=2	!LO:N:vis=2	!	!	!	!
4E-	8E-	.	8ccc#X^L 8een	.	.
.	8e-	.	8ddn	.	.
8ryy	8A-J	.	8dddnJ 8ff	.	[
=6	=6	=6	=6	=6	=6
4.ryy	8AA-L	.	8ee-X^L	.	.
.	8d-	.	8eee- 8gg	.	.
.	8G	.	8ffJ	.	.
!	!LO:N:vis=2	!	!	!	!
2E-	8E-	.	8fff^<L 8aa-	.	.
.	8e-	.	8ee-	.	.
.	8GJ	.	8eee-J 8ff	.	.
.	8AA-L	.	8cc^L	.	>
4rfyy	8c	.	8ccc 8ee-	.	.
.	8A-	.	8b-J	.	.
!LO:N:vis=2	!LO:N:vis=2	!	!	!	!
4E-	8E-	.	8bb-^L 8dd-	.	.
.	8e-	.	8cc	.	.
.	.	.	.	.	]
8ryy	8A-J	.	8cccJ 8ee-	.	.
!!LO:LB:g=original
=7	=7	=7	=7	=7	=7
!	!	!	!LO:TX:t=P:pedał przed nutą:problem	!	!
*	*	*	*ped	*	*
4.ryy	8BB-'L	.	8b-L	.	.
.	(>8dn	.	8bb- 8ddn	.	.
.	8B-	.	8ccJ	.	.
.	.	.	.	.	<
4A-	8A-	.	8ccc^L 8ee-	.	.
.	8d	.	8dd	.	.
*	*	*	*Xped	*	*
2.rfyy	8B-J)	.	8dddnyJ 8ff	.	.
.	8E-L/	.	8ee-L	.	.
*	*	*	*ped	*	*
*clefG2	*	*	*	*	*
.	8g	.	8eee- 8gg	.	.
.	8e-	.	8ffJ	.	.
*	*	*	*Xped	*	*
*	*	*	*8va	*	*
.	8c	.	8fff^L 8aa-	.	.
.	8an	.	8ff#X	.	.
!LO:TX:t=P:wyświetla się dodatkowy klucz:problem	!	!	!	!	!
8rbyy	8e-J	.	8fff#XJ 8aan	.	.
=8	=8	=8	=8	=8	=8
2.rccyy	8B-L	.	8gg^L\	.	.
.	8b-	.	8ggg 8bb-	.	.
.	8e-	.	8aa-J	.	.
.	8B-	.	8aaa-^L 8ccc	.	.
*	*	*	*X8va	*	*
!	!	!	!LO:TX:a:B:t=Loco.	!	!
.	8a-	.	8ddn	.	.
.	8dnJ	.	8dddnyJ 8ff	.	>
*clefF4	*	*	*	*	*
*ped	*	*	*	*	*
4.rccyy	8E-L	.	8ffL	.	.
.	8g	.	8fffJ 8aa-	.	.
.	8e-	.	8eenL	.	.
4.d-X	8d-X	.	8eeen^J 8gg	.	.
.	8g	.	8eeL	.	.
*Xped	*	*	*	*	*
.	8e-J	.	8eee-XJ 8gg	.	.
*v	*v	*	*	*	*
=9	=9	=9	=9	=9
*	*	*^	*	*
*	*	*	*	*^	*
!LO:TX:b:B:t=Legatissimo	!	!	!	!	!	!
8AA-L	.	(>8ee-L	4ryy	1	.	p
8c	.	8aa-J 8cc)	.	5	2	.
8A-	.	(>8b-L\	4b-/	.	.	<
8E-	.	8bb-J 8dd-)	.	.	.	.
8e-	.	(>8bnL\	4bn/	.	.	.
8A-J	.	8bbnJ 8ddn)	.	.	.	.
8AA-L	.	(>8ccL\	4cc/	.	.	.
8c	.	8cccJ 8ee-)	.	.	.	.
8A-	.	(>8cc#XL\	4cc#X/	.	.	.
8E-	.	8ccc#XJ 8een)	.	.	.	.
8e-	.	(>8ddL\	4dd/	.	.	.
!	!	!LO:TX:t=P:niejednoznaczne zakończenie łuku:problem	!	!	!	!
8A-J	.	8dddnJ 8ff))	.	.	.	[
*	*	*	*	*v	*v	*
!!LO:LB:g=original
=10	=10	=10	=10	=10	=10
8AA-L	.	(>8ee-L\	4ee-/	.	.
8d-	.	8eee-J 8gg)	.	.	.
8G	.	(>8ffL\	4ff/	.	.
8E-	.	8fffJ 8aa-)	.	.	.
8e-	.	(>8ee-L\	4ee-/	.	>
8GJ	.	8eee-J 8gg)	.	.	.
8AA-L	.	(>8ccL\	4cc/	.	]
8c	.	8cccJ 8ee-)	.	.	.
8A-	.	(>8b-L\	4b-/	.	.
8E-	.	8bb-J 8dd-)	.	.	<
8e-	.	(>8ccL\	4cc/	.	.
8A-J	.	8cccJ 8ee-)	.	.	.
=11	=11	=11	=11	=11	=11
.	.	.	.	.	[
8AA-L	.	(>8b-L\	4b-/	.	.
8d-	.	8bb-J 8dd-)	.	.	.
8G	.	(>8ccL\	4cc/	.	.
8E-	.	8cccJ 8ee-)	.	.	.
8e-	.	(>8gL\	4g/	.	.
8GJ	.	8ggJ 8b-)	.	.	.
8AA-L	.	(>8a-L\	4a-/	.	.
8c	.	8aa-J 8cc)	.	.	.
8A-	.	(>8gL\	4g/	.	.
8E-	.	8ggJ 8b-)	.	.	.
8e-	.	(>8a-L\	4a-/	.	.
8A-J	.	8aa-J 8cc)	.	.	.
=12	=12	=12	=12	=12	=12
8BB-L	.	(>8fL\	4f/	.	.
8dn	.	8ffJ 8a-)	.	.	.
8B-	.	(>8gL\	4g/	.	.
8A-	.	8ggJ 8b-)	.	.	.
8d	.	(>8fL\	4f/	.	.
8B-J	.	8ffJ 8a-)	.	.	.
!	!	!	!	!	!LO:HP:a
8EE-L	.	(>8f-XL\	4f-X/	.	>
8d-X	.	8ff-XJ 8g)	.	.	]
8B-	.	(>8e-L\	4e-/	.	.
8E-	.	8ee-J 8g)	.	.	.
8d-	.	(>8gL\	4g/	.	.
8B-J	.	8ggJ 8b-)	.	.	.
*	*	*v	*v	*	*
!!LO:LB:g=original
=13	=13	=13	=13	=13
!LO:TX:a:B:t=Stac	!	!	!	!
8AA-'>L	.	8a-'>L	.	.
8c'>	.	8aa-'>J 8cc	.	.
8A-'>	.	8b-'>L	.	.
8E-'>	.	8bb-'>J 8dd-	.	.
8e-'>	.	8bn'>L	.	.
8A-'>J	.	8bbny'>J 8dd-	.	.
8AA-'>L	.	8cc'>L	.	<
8c'>	.	8ccc'>J 8ee-	.	.
8A-'>	.	8cc#X'>L	.	.
8E-'>	.	8ccc#X'>J 8een	.	.
8e-'>	.	8dd'>L	.	.
8A-'>J	.	8dddn'>J 8ff	.	.
=14	=14	=14	=14	=14
8AA-'>L	.	8ee-X'>L	.	.
.	.	.	.	[
8d-'>	.	8eee-'>J 8gg	.	.
8G'>	.	8ff'>L	.	.
8E-'>	.	8fff'>J 8aa-	.	.
8e-'>	.	8ee-'>L	.	.
8G'>J	.	8eee-'>J 8gg	.	.
8AA-'>L	.	8cc'>L	.	.
8c'>	.	8ccc'>J 8ee-	.	.
8A-'>	.	8b-'>L	.	.
.	.	.	.	<
8G-X'>	.	8bb-'>J 8dd-	.	.
8e-'>	.	8cc'>L	.	.
8A-'>J	.	8ccc'>J 8ee-	.	.
=15	=15	=15	=15	=15
8D-'>L	.	8dd-'>L	.	.
8f'>	.	8ddd-'>J 8ff	.	.
8d-'>	.	8ee-'>L	.	.
8A-'>	.	8eee-'>J 8gg	.	.
8f'>	.	8ff'>L	.	.
*ped	*	*	*	*
8d-'>J	.	8fff'>J 8aa-	.	.
*	*	*8va	*	*
8D-'>L	.	8gg'>L	.	.
8f-X'>	.	8ggg'>J 8bb-	.	.
8d-'>	.	8aa-'>L	.	.
8A-'>	.	8aaa-'>J 8ccc-X	.	.
8f-'>	.	8aan'>L	.	.
8d-'>J	.	8aaan'>J 8cccn	.	.
*Xped	*	*	*	*
!!LO:LB:g=original
=16	=16	=16	=16	=16
*	*	*ped	*	*
!	!	!LO:TX:t=P:znak pedalizacji przed nutą:problem	!	!
8E-'<L	.	8bb-'>L	.	.
*clefG2	*	*	*	*
8g'<	.	8bbb-'>J 8ddd-	.	.
8e-'<	.	8ccc'>L	.	.
8d-'<	.	8cccc'>J 8eee-	.	.
8g'<	.	8gg'>L	.	.
*Xped	*	*	*	*
8e-'<J	.	8ggg'>J 8bb-	.	.
*clefF4	*	*	*	*
*	*	*ped	*	*
8AA-'>L	.	(>8aa-^>L	.	.
(>8c	.	8aaa- 8ccc	.	.
*	*	*X8va	*	*
!	!	!LO:TX:a:B:t=Loco	!	!
8A-	.	8aa-J	.	.
8E-	.	8aa-L 8cc	.	.
8e-	.	8a-	.	.
8A-J)	.	8aa-J 8cc)	.	.
*kcancel	*	*kcancel	*	*
!LO:TX:a:t=P:oznaczenie wcześniej, pod znakami:problem	!	!	!	!
!LO:TX:a:B:t=Legatiss.	!	!	!	!
=17	=17	=17	=17	=17
*k[f#c#g#d#]	*	*k[f#c#g#d#]	*	*
*ped	*	*	*	*
!LO:TX:b:t=P:znak pedalizacji przed nutą:problem	!	!	!	!
!	!	!	!	!LO:DY:rj
8EEL	.	8g#L\	.	f
8B	.	8gg#^> 8b	.	.
8E	.	8aJ	.	.
8BB	.	8aa^>L 8cc#	.	.
8B	.	8g#	.	.
*Xped	*	*	*	*
*	*	*ped	*	*
8EJ	.	8gg#^>J 8b	.	.
8EEL	.	8f#L\	.	.
8A#X	.	8ff#^> 8a#X	.	.
8F#	.	8c#J	.	.
8C#	.	8cc#^<L 8e	.	.
8A#	.	8d#	.	.
*	*	*Xped	*	*
8F#J	.	8dd#^<J 8f#	.	.
=18	=18	=18	=18	=18
*ped	*	*	*	*
!LO:TX:b:t=P:znak pedalizacji przed nutą:problem	!	!	!	!
8EEL	.	8eL\	.	.
8An	.	8ee 8g#	.	.
8D#	.	8g#J	.	.
8BB	.	8gg#^>L 8b	.	.
8B	.	8f#	.	.
*Xped	*	*	*	*
8D#J	.	8ff#^>J 8a	.	.
*	*	*ped	*	*
8EEL	.	8eL	.	.
8G#	.	8ee^< 8g#	.	.
8E	.	8BJ	.	.
8BB	.	8b^<L 8d#	.	.
8B	.	8c#	.	.
*	*	*Xped	*	*
8EJ	.	8cc#^<J 8e	.	.
!!LO:PB:g=original
=19	=19	=19	=19	=19
*ped	*	*	*	*
!LO:TX:b:t=P:znak pedalizacji przed nutą:problem	!	!	!	!
8EEL	.	8eL\	.	.
8A	.	8ee^> 8g#	.	.
8F#	.	8d#J	.	.
8BB	.	8dd#^>L\ 8f#	.	.
*Xped	*	*	*	*
8B	.	8e	.	.
8F#J	.	8ee^>J 8g#	.	.
*ped	*	*	*	*
!LO:TX:b:t=P:znak pedalizacji przed nutą:problem	!	!	!	!
8EEL	.	8g#L\	.	.
8A	.	8gg#^> 8b	.	.
8D#	.	8f#J	.	.
8BB	.	8ff#^>L 8a	.	.
8B	.	8g#	.	.
*Xped	*	*	*	*
8D#J	.	8gg#J 8b	.	.
=20	=20	=20	=20	=20
*ped	*	*	*	*
!LO:TX:b:t=P:znak pedalizacji przed nutą:problem	!	!	!	!
8EEL	.	8bL	.	<
8A	.	8bb 8dd#	.	.
8F#	.	8aJ	.	.
8BB	.	8aa^>L 8cc#	.	.
8B	.	8b	.	.
*Xped	*	*	*	*
8F#J	.	8bb^>J 8dd#	.	.
*	*	*ped	*	*
8EEL	.	8dd#L	.	[
8A	.	8ddd#^> 8ff#	.	.
8D#	.	8cc#J	.	.
8BB	.	8ccc#^>L 8ee	.	.
8B	.	8b	.	.
*Xped	*	*	*	*
8F#J	.	8bb^>J 8dd#	.	.
=21	=21	=21	=21	=21
8EEL	.	(>8g#L	.	.
8B	.	8gg#J 8b)	.	.
8E	.	(>8aL	.	.
8BB	.	8aaJ 8ccn)	.	.
8B	.	(>8g#L	.	.
8EJ	.	8gg#J 8b)	.	.
8EEL	.	(<8f#L	.	.
8A	.	8ff#J 8a)	.	.
8E	.	(<8cnL	.	.
8Cn	.	8ccJ 8e)	.	.
8A	.	(<8eL	.	.
8EJ	.	8eeJ 8g#)	.	.
!!LO:LB:g=original
=22	=22	=22	=22	=22
8EEL	.	8f#L\	.	.
8A	.	8ff#J 8a	.	.
8D#	.	8g#L	.	.
8BB	.	8gg#J 8b	.	.
8B	.	8f#L\	.	.
8D#J	.	8ff#J 8a	.	.
8EEL	.	8eL	.	.
8G#	.	8eeJ 8g#	.	.
8E	.	8d#XL	.	.
8BB	.	8dd#XJ 8g#	.	.
8B	.	8dnL	.	.
8EJ	.	8ddnJ 8g#	.	.
*kcancel	*	*kcancel	*	*
=23	=23	=23	=23	=23
*k[b-e-a-d-]	*	*k[b-e-a-d-]	*	*
*ped	*	*	*	*
!LO:TX:b:t=P:znak pedalizacji przed nutą:problem	!	!	!	!
8EE-L	.	8e-L	.	<
8d-	.	8ee-J 8g	.	.
8G	.	8fL	.	.
8E-	.	8ffJ 8a-	.	.
*Xped	*	*	*	*
8e-	.	8f#XL	.	.
8GJ	.	8ff#XJ 8an	.	.
*ped	*	*	*	*
!LO:TX:b:t=P:znak pedalizacji przed nutą:problem	!	!	!	!
8EE-L	.	8gL	.	.
8d-	.	8ggJ 8b-	.	.
8G	.	8aL	.	.
8E-	.	8aa-J 8cc	.	.
*Xped	*	*	*	*
8e-	.	8b-L	.	.
8GJ	.	8bb-J 8dd-	.	.
=24	=24	=24	=24	=24
*ped	*	*	*	*
!LO:TX:b:t=P:znak pedalizacji przed nutą:problem	!	!	!	!
8AA-L	.	8ccL	.	<
8c	.	8cccJ 8ee-	.	.
8A-	.	8cc#XL	.	.
8G-X	.	8ccc#XJ 8een	.	.
*Xped	*	*	*	*
8e-	.	8ddnL	.	.
8A-J	.	8dddnyJ 8ff	.	.
*ped	*	*	*	*
!LO:TX:b:t=P:znak pedalizacji przed nutą:problem	!	!	!	!
8AA-L	.	8ee-XL	.	[
8c	.	8eee-XJ 8gg-X	.	.
8A-	.	8ffL	.	.
8G-X	.	8fffJ 8aa-	.	.
8e-	.	8gg-L	.	.
*Xped	*	*	*	*
8A-J	.	8ggg-XJ 8bb-	.	.
!!LO:LB:g=original
=25	=25	=25	=25	=25
*ped	*	*	*	*
!LO:TX:b:t=P:znak pedalizacji przed nutą:problem	!	!	!	!LO:DY:rj
8DD-L	.	8gg-XL	.	f>
8f	.	8ggg-XJ 8bb-	.	.
8d-	.	8ffL	.	.
8A-	.	8fffJ 8aa-	.	.
8f	.	8ccL	.	.
*Xped	*	*	*	*
8d-J	.	8cccJ 8ee-	.	]
*ped	*	*	*	*
8GGnL	.	8ee-L	.	.
8d-	.	8eee-J 8gg-X	.	>
8B-	.	8dd-L	.	.
8F-X	.	8ddd-J 8ff-X	.	.
8d-	.	8b-L	.	.
*Xped	*	*	*	*
8B-J	.	8bb-J 8dd-	.	]
=26	=26	=26	=26	=26
*ped	*	*	*	*
!LO:TX:b:t=P:znak pedalizacji przed nutą:problem	!	!	!	!
8AA-L	.	8b-L	.	.
8d-	.	8bb-J 8dd-	.	.
8A-	.	8b--L	.	.
8F	.	8bb--J 8dd-	.	.
*Xped	*	*	*	*
8d-	.	8a-L	.	.
8A-J	.	8aa-J 8dd-	.	.
*ped	*	*	*	*
!LO:TX:b:t=P:znak pedalizacji przed nutą:problem	!	!	!	!
8AA-L	.	8gL	.	.
8c	.	8ggJ 8cc	.	.
8A-	.	8g-XL	.	.
8G-X	.	8gg-XJ 8cc	.	.
*Xped	*	*	*	*
8c	.	8e-L\	.	.
8A-J	.	8ee-J 8g-	.	.
=27	=27	=27	=27	=27
*ped	*	*	*	*
!LO:TX:b:t=P:znak pedalizacji przed nutą:problem	!	!	!	!
!	!	!LO:TX:a:B:t=Sotto voce	!	!
8DD-L\	.	(<8d-L	.	p
8A-	.	8dd-J 8f)	.	.
8D-	.	(<8d-L	.	.
8AA-	.	8dd-J 8f)	.	.
8A-	.	(<8d-L	.	.
8D-J	.	8dd-J 8f)	.	.
8DD-L\	.	(<8d-L	.	>
8A-	.	8dd- 8f	.	.
8D-	.	8d-J	.	.
8AA-	.	8dd-^L 8f	.	.
8A-	.	8d-	.	.
8D-J	.	8dd-J 8f)	.	.
!!LO:LB:g=original
=28	=28	=28	=28	=28
8DD-L\	.	8d-L	.	.
8A-	.	8dd-J 8f-X	.	.
8D-	.	8d-L	.	.
8AA-	.	8dd-J 8f-	.	.
8A-	.	8d-L	.	.
8D-J	.	8dd-J 8f-	.	.
8DD-L\	.	(>8d-L	.	.
8A-	.	8dd- 8f-	.	.
8D-	.	8d-J	.	.
8AA-	.	8dd-^L 8f-	.	.
8A-	.	8dd-	1	.
8D-J	.	8ddd-J 8ff-X)	.	.
*Xped	*	*	*	*
*kcancel	*	*kcancel	*	*
=29	=29	=29	=29	=29
*k[f#c#g#d#]	*	*k[f#c#g#d#]	*	*
*ped	*	*	*	*
!LO:TX:b:t=P:znak pedalizacji przed nutą:problem	!	!	!	!
8AAL	.	8cc#L	.	.
8e	.	8ccc# 8ee	.	.
8A	.	8ddJ	.	.
8E	.	8dddL 8ff#	.	.
8e	.	8cc#	.	.
*Xped	*	*	*	*
8AJ	.	8ccc#J 8ee	.	.
*ped	*	*	*	*
8AAL	.	8bL	.	.
8d#X	.	8bb 8dd#X	.	.
8A	.	8f#J	.	.
8F#	.	8ff#L 8a	.	.
*Xped	*	*	*	*
8d#	.	8g#	.	.
8AJ	.	8gg#J 8b	.	.
=30	=30	=30	=30	=30
*ped	*	*	*	*
!LO:TX:b:t=P:znak pedalizacji przed nutą:problem	!	!	!	!
8AAL	.	8aL	.	.
8dn	.	8aa 8cc#	.	.
8G#	.	8cc#J	.	.
8E	.	8ccc#L 8ee	.	.
*Xped	*	*	*	*
8e	.	8b	.	.
8G#J	.	8bbJ 8ddn	.	.
*ped	*	*	*	*
8AAL	.	8aL\	.	.
8c#	.	8aa 8cc#	.	.
8A	.	8eJ	.	.
8E	.	8eeL\ 8g#	.	.
8e	.	8f#	.	.
*Xped	*	*	*	*
8AJ	.	8ff#J 8a	.	.
!!LO:LB:g=original
=31	=31	=31	=31	=31
*ped	*	*	*	*
!LO:TX:b:t=P:znak pedalizacji przed nutą:problem	!	!	!	!
8AAL	.	8aL	.	.
8d	.	8aa 8cc#	.	.
8B	.	8g#J	.	.
8E	.	8gg#L 8b	.	.
*Xped	*	*	*	*
8e	.	8a	.	.
8BJ	.	8aaJ 8cc#	.	.
*ped	*	*	*	*
8AAL	.	8cc#L	.	.
8d	.	8ccc# 8ee	.	.
8G#	.	8bJ	.	.
8E	.	8bbL 8dd	.	.
*Xped	*	*	*	*
8e	.	8cc#	.	.
8G#J	.	8ccc#J 8ee	.	.
=32	=32	=32	=32	=32
*ped	*	*	*	*
!LO:TX:b:t=P:znak pedalizacji przed nutą:problem	!	!	!	!
8AAL	.	8eeL	.	.
8d	.	8eee 8gg#	.	.
8B	.	8ddJ	.	.
8E	.	8dddnyL 8ff#	.	.
8e	.	8ee	.	.
8BJ	.	8eeeJ 8gg#	.	.
8AAL	.	8gg#L	.	.
8d	.	8ggg# 8bb	.	.
8G#	.	8ff#J	.	.
8E	.	8fff#L 8aa	.	.
8e	.	8ee	.	.
*Xped	*	*	*	*
8BJ	.	8eeeJ 8gg#	.	.
=33	=33	=33	=33	=33
!	!	!	!	!LO:DY:rj
8AAL	.	8cc#L	.	p
8e	.	8ccc#J 8ee	.	.
8A	.	8ddL	.	.
8E	.	8dddJ 8ffn	.	.
8e	.	8cc#L	.	.
8AJ	.	8ccc#J 8ee	.	.
8AAL	.	8bL	.	.
8d	.	8bbJ 8dd	.	.
8A	.	8fnL\	.	.
8Fny	.	8ffnJ 8a	.	.
8d	.	8aL	.	.
8AJ	.	8aaJ 8cc#	.	.
!!LO:LB:g=original
=34	=34	=34	=34	=34
8AAL	.	8bL	.	.
8d	.	8bbJ 8dd	.	.
8G#	.	8cc#L	.	.
8E	.	8ccc#J 8ee	.	.
8e	.	8bL	.	.
8G#J	.	8bbJ 8dd	.	.
8AAL	.	8aL	.	.
8c#	.	8aaJ 8cc#	.	.
8A	.	8g#L	.	.
8E	.	8gg#J 8cc#	.	.
8e	.	8gnL	.	.
8AJ	.	8ggnJ 8cc#	.	.
*kcancel	*	*kcancel	*	*
=35	=35	=35	=35	=35
*k[b-e-a-d-]	*	*k[b-e-a-d-]	*	*
8AA-L	.	8a-L	.	.
8c	.	8aa-J 8cc	.	.
8A-	.	8b-L	.	.
8G-X	.	8bb-J 8dd-	.	.
8e-	.	8bnL	.	.
8A-J	.	8bbnyJ 8ddn	.	.
8AA-L	.	8ccL	.	<
8c	.	8cccJ 8ee-	.	.
8A-	.	8dd-XL	.	.
8G-	.	8ddd-J 8ff	.	.
8e-	.	8ee-L	.	.
8A-J	.	8eee-J 8gg-X	.	.
=36	=36	=36	=36	=36
8D-L	.	8ffL	.	.
8f	.	8fffJ 8aa-	.	.
8d-	.	8gg-XL	.	.
8c-X	.	8ggg-XJ 8bb--	.	.
8a-	.	8ggnL	.	.
8d-J	.	8gggnJ 8bb-X	.	.
*	*	*8va	*	*
8D-L	.	8aa-L	.	.
8f	.	8aaa-J 8cca-X	.	.
8d-	.	8bb-L	.	.
8c-	.	8bbb-J 8ddd-	.	.
8a-	.	8ccc-L	.	.
8fJ	.	8cccc-XJ 8eee-	.	.
!!LO:PB:g=original
=37	=37	=37	=37	=37
!LO:TX:a:t=P:klucz w oryginale tylko w nowej pięciolinii:problem	!	!	!	!
*clefG2	*	*	*	*
8G-XL	.	8ccc-XL	.	.
8g-X	.	8cccc-XJ 8eee-	.	.
8d-	.	8bb-L	.	.
8B-	.	8bbb-J 8ddd-	.	.
8b-	.	8ffL\	.	.
8d-J	.	8fffJ 8aa-	.	.
*clefF4	*	*	*	*
8C-XL	.	8aa-L	.	.
8e-	.	8aaa-J 8ccc-	.	.
8c-y	.	8ggL	.	.
8A-	.	8ggg-XJ 8ccc-	.	.
*	*	*X8va	*	*
!	!	!LO:TX:a:B:t=Loco	!	!
8g-	.	8ee-L	.	.
8c-J	.	8eee-J 8gg-X	.	.
=38	=38	=38	=38	=38
8D-L	.	8ee-L	.	>
8d-	.	8eee-J 8gg-X	.	.
8B-	.	8ee--L	.	.
8G-X	.	8eee--J 8gg-	.	.
.	.	.	.	]
8g-y	.	8dd-L	.	.
8cJ	.	8ddd-J 8gg-	.	.
8D-L	.	8dd-L	.	>
8f	.	8ddd-J 8ff	.	.
8c-X	.	8ccnL	.	.
8A-	.	8cccJ 8ff	.	.
8a-	.	8cc-XL	.	]
8c-J	.	8ccc-XJ 8ff	.	.
=39	=39	=39	=39	=39
8DnL	.	8b-L	.	.
8f	.	8bb-J 8ddn	.	.
8B-	.	8ccL	.	.
8A-	.	8cccJ 8ee-	.	.
!	!	!	!	!LO:HP:b=2
8a-	.	8cc#XL	.	<
8B-J	.	8ccc#XJ 8een	.	.
*ped	*	*	*	*
8BB-L	.	8ddL	.	.
8dn	.	8dddny 8ff	.	.
8B-	.	8ee-XJ	.	.
8A-	.	8eee-L 8gg	.	.
8a-	.	8ff	.	.
*Xped	*	*	*	*
8B-J	.	8fffJ 8aa-	.	.
!!LO:LB:g=original
=40	=40	=40	=40	=40
*	*	*ped	*	*
!	!	!LO:TX:b:t=P:znak pedalizacji przed nutą:problem	!	!
8E-L	.	8aa-L	.	.
8e-	.	8aaa- 8ccc	.	.
8B-	.	8ggJ	.	.
8G	.	8gggL 8bb-	.	.
8g	.	8dd-	.	.
*	*	*Xped	*	*
8B-J	.	8dddnJ 8ff	.	.
*	*	*ped	*	*
8AAn	.	8ffL	.	.
8e-L	.	8fff 8aan	.	.
8c	.	8ee-J	.	.
8G-X	.	8eee-L 8gg-X	.	.
8g-y	.	8cc	.	.
*	*	*Xped	*	*
8cJ	.	8cccJ 8ee-	.	.
=41	=41	=41	=41	=41
*ped	*	*	*	*
!LO:TX:b:t=P:znak pedalizacji przed nutą:problem	!	!	!	!
8BB-L	.	(>8ccL	.	.
8e-	.	8ccc 8ee-	.	.
8B-	.	8cc-XJ	.	.
8Gn	.	8ccc-X^>L 8ee-	.	.
8gny	.	8b-	.	.
*Xped	*	*	*	*
8B-J	.	8bb-J 8ee-)	.	.
*	*	*ped	*	*
!	!	!LO:TX:b:t=P:znak pedalizacji przed nutą:problem	!	!
8BB-L	.	(>8ccnL	.	.
8en	.	8cccny 8een	.	.
8c	.	8bnJ	.	.
8G	.	8bbn^>L 8ee	.	.
8g	.	8b-X	.	.
*	*	*Xped	*	*
8cJ	.	8bb-XJ 8ee)	.	.
=42	=42	=42	=42	=42
*ped	*	*	*	*
!LO:TX:b:t=P:znak pedalizacji przed nutą:problem	!	!	!	!
8BB-L	.	(>8ccL	.	.
8f	.	8ccc 8ff	.	.
8dn	.	8cc-XJ	.	.
8A-	.	8ccc-X^>L 8ff	.	.
*Xped	*	*	*	*
8a-	.	8b-	.	.
8dJ	.	8bb-J 8ff)	.	.
*ped	*	*	*	*
(>8BB-L	.	(>8b-L	.	.
8d	.	8bb- 8ddn	.	.
8B-	.	8ggJ	.	.
8A-	.	8ggg^<L 8bb-	.	.
8d	.	8ff	.	.
!	!	!LO:TX:t=P:niejednoznaczne zakończenie łuków:problem	!	!
8B-J)	.	8fffJ 8aa-)	.	.
!!LO:LB:g=original
=43	=43	=43	=43	=43
!	!	!	!	!LO:DY:rj
4e- 4G 4E-	.	(>8ee-L	.	f
.	.	8eee- 8gg	.	.
*ped	*	*	*	*
8r	.	8ff-XJ	1	.
2.dn 2.c-X 2.A- 2.E-	.	8fff-XL 8aa-	.	.
.	.	8fff-	1	.
*	*	*8va	*	*
.	.	8ffff-yJ 8aaa-	.	.
.	.	8fff-L	.	.
.	.	8fff- 8aa-	.	.
*	*	*X8va	*	*
!	!	!LO:TX:a:B:t=Loco	!	!
.	.	8ff-J	.	.
4EE-	.	8ff-L 8a-	.	.
.	.	8f-X	.	.
8r	.	8ff-J 8a-)	.	.
*Xped	*	*	*	*
=44	=44	=44	=44	=44
4B- 4E-	.	(>8e-L\	.	.
.	.	8ee- 8g	.	.
8r	.	8f-XJ	.	.
*ped	*	*	*	*
4.dn 4.c-X 4.A- 4.E-	.	8ff-XL 8a-	.	.
.	.	8ff-	.	.
.	.	8fff-yJ 8aa-	.	.
*	*	*8va	*	*
4EE-	.	8fff-L	.	.
.	.	8ffff-y 8aaa-	.	.
8r	.	8fff-J	.	.
4.d 4.c- 4.A- [>4.E-	.	8fff-L 8aa-	.	.
*	*	*X8va	*	*
!	!	!LO:TX:a:B:t=Loco	!	!
.	.	8ff-	.	.
*Xped	*	*	*	*
.	.	8ff-J 8a-)	.	.
=45	=45	=45	=45	=45
*ped	*	*	*	*
!LO:TX:b:t=P:mixed beam:problem	!	!	!	!
8B-L 8G 8E-]\	.	8e-L\	1	.
8EE-J/	.	8ee- 8g	.	.
8r	.	8ee-J	1	.
4r	.	8eee-L 8gg	.	.
.	.	8ee-	.	.
*Xped	*	*	*	*
(>8B- 8E-	.	8ee-J 8g	.	.
!LO:TX:b:t=P:mixed beam:problem	!	!	!	!
8d--L 8E-)\	.	8g-XL	1	.
8EE-J/	.	8gg-X 8an	.	.
8r	.	8gg-J	1	.
.	.	.	.	<
4r	.	8ggg-XL 8aan	.	.
*Xped	*	*	*	*
.	.	8gg-	.	.
8d-- 8E-	.	8gg-J 8a	.	.
!!LO:LB:g=original
=46	=46	=46	=46	=46
*ped	*	*	*	*
!LO:TX:b:t=P:mixed beam:problem	!	!	!	!
8c-XL 8E-\	.	8fL	.	.
8EE-J/	.	8ff 8a-	.	.
8r	.	8ffJ	.	.
4r	.	8fffL 8aa-	.	.
.	.	8ff	.	.
*Xped	*	*	*	*
8c- 8E-	.	8ffJ 8a-	.	.
!LO:TX:b:t=P:mixed beam:problem	!	!	!	!
*ped	*	*	*	*
8e--L 8E-\	.	8a-L	.	.
8EE-J/	.	8aa- 8cc-X	.	.
.	.	.	.	<
8r	.	8aa-J	.	.
4r	.	8aaa-L 8ccc-X	.	.
.	.	8aa-	.	.
*Xped	*	*	*	*
8e-- 8E-	.	8aa-J 8cc-	.	.
=47	=47	=47	=47	=47
*ped	*	*	*	*
!LO:TX:b:t=P:mixed beam:problem	!	!	!	!
8d-L 8E-\	.	8gL	.	.
8EE-J/	.	8gg 8b-	.	.
8r	.	8ggJ	.	.
4r	.	8gggL 8bb-	.	.
*Xped	*	*	*	*
.	.	8gg	.	.
8d- 8E-	.	8ggJ 8b-	.	.
!LO:TX:b:t=P:mixed beam:problem	!	!	!	!
8f-X^<L 8E-\	.	8b-L	.	.
8EE-J/	.	8bb- 8dd-	.	.
8r	.	8bb-J	.	.
*	*	*8va	*	*
4r	.	8bbb-L 8ddd-	.	.
.	.	8bb-	.	.
*	*	*X8va	*	*
*Xped	*	*	*	*
!	!	!LO:TX:a:B:t=Loco	!	!
8f- 8E-	.	8bb-J 8dd-	.	.
=48	=48	=48	=48	=48
*ped	*	*	*	*
!LO:TX:b:t=P:mixed beam:problem	!	!	!	!
8e-L 8E-\	.	8anL	.	.
8EE-J/	.	8aan 8cc	.	.
8r	.	8aaJ	.	.
4r	.	8aaanyL 8ccc	.	.
*Xped	*	*	*	*
.	.	8aan	.	.
8e- 8E-	.	8aaJ 8cc	.	.
*ped	*	*	*	*
!LO:TX:b:t=P:mixed beam:problem	!	!	!	!
8g-XL 8E-\	.	8ccL	.	.
8EE-J/	.	8ccc 8ee-	.	.
8r	.	8cccJ	.	.
*	*	*8va	*	*
4r	.	8ccccL 8eee-	.	.
*	*	*X8va	*	*
*Xped	*	*	*	*
!	!	!LO:TX:a:B:t=Loco	!	!
.	.	8ccc	.	.
8g- 8E-	.	8cccJ 8ee-	.	.
!!LO:LB:g=original
=49	=49	=49	=49	=49
*ped	*	*	*	*
!LO:TX:b:t=P:znak pedalizacji przed nutą:problem	!	!	!	!
4.gn: 4.d-: 4.B-: 4.E-:	.	8dd-L	.	.
.	.	8ddd- 8ee-	.	.
.	.	8ddd-J	.	.
*clefG2	*	*	*	*
*	*	*8va	*	*
!	!	!	!	!LO:DY:b=2
2.ggn 2.dd- 2.b-	.	8dddd-L 8eee-	.	fz>
.	.	8ddd-	.	.
.	.	.	.	]
.	.	8dddd-J 8eee-	.	.
.	.	8ddd-L	.	.
.	.	8dddd- 8eee-	.	.
*Xped	*	*	*	*
.	.	8ddd-J	.	.
(>4.ff#X [>4.dd- &(<4.an	.	8dddd-L 8eee-	.	>
.	.	8ddd-	.	.
.	.	8dddd-J 8eee-	.	]
=50	=50	=50	=50	=50
4gg') 4dd-] 4b-&)	.	8ddd-L	.	.
.	.	8dddd- 8eee-	.	.
8r	.	8ddd-J	.	.
(>4.ff#X [>4.dd- 4.an	.	8dddd-L 8eee-	.	>
.	.	8ddd-	.	.
.	.	8dddd-J 8eee-	.	]
4gg 4dd-] 4b-)	.	8ddd-L	.	.
.	.	8dddd- 8eee-	.	.
8r	.	8ddd-J	.	.
[>4.gg-X 4.dd- 4.b--	.	8dddd-L 8eee-	.	>
.	.	8ddd-	.	.
.	.	8dddd-J 8eee-	.	]
=51	=51	=51	=51	=51
*^	*	*	*	*
2.gg-X] 2.ee-	4.b--	.	8ddd-L	.	.
.	.	.	8dddd- 8eee-	.	.
.	.	.	8ddd-J	.	.
!	!	!	!LO:TX:B:t=Leggierissimo	!	!
.	2.a-	.	8ccccL 8eee-	.	.
.	.	.	8ccc	.	.
.	.	.	8ccccJ 8eee-	.	.
2.ff 2.ddn	.	.	8cccL	.	.
.	.	.	8cccc 8dddn	.	.
.	.	.	8cccJ	.	.
.	(<4.g	.	8bbbnL 8ddd	.	.
.	.	.	8bbn	.	.
.	.	.	8bbbJ 8ddd	.	.
!!LO:LB:g=original
=52	=52	=52	=52	=52	=52
!LO:TX:b:t=P:brak zakończenia łuku:problem	!	!	!	!	!
2ff-X 2dd-	4.a--)	.	8ccc-XL	.	.
.	.	.	8cccc-X 8ddd-X	.	.
.	.	.	8ccc-J	.	.
.	2.g-X	.	8bbb-L 8ddd-	.	.
4ryy	.	.	8bb-	.	.
.	.	.	8bbb-J 8ddd-	.	.
2ee- 2cc	.	.	8bb-L	.	.
.	.	.	8bbb- 8cccn	.	.
.	.	.	8bb-J	.	.
.	4.fn	.	8aaanL 8ccc	.	.
4ryy	.	.	8aan	.	.
.	.	.	8aaaJ 8ccc	.	.
=53	=53	=53	=53	=53	=53
2.ee-X 2.cc--	4.f	.	8aanL	.	.
.	.	.	8aaan 8bbn	.	.
.	.	.	8aa-XJ	.	.
.	4.f-X	.	8aaa-XL 8ccc-X	.	.
.	.	.	8aa-	.	.
.	.	.	8aaa-J 8ccc-	.	.
!	!	!	!LO:TX:B:t=Dolcissimo	!	!
4r	2.rcyy	.	8aa-L	.	.
.	.	.	8aaa- 8ccc-	.	.
8r	.	.	8aa-J	.	.
4r	.	.	8aaa-L 8ccc-	.	.
.	.	.	8aa-	.	.
8r	.	.	8aaa-J 8ccc-	.	.
*v	*v	*	*	*	*
*clefF4	*	*	*	*
=54	=54	=54	=54	=54
*ped	*	*	*	*
!LO:TX:b:t=P:znak pedalizacji przed nutą:problem	!	!	!	!
!	!	!LO:TX:B:t=Rall	!	!
(>8FF-XL	.	8aa-L	.	.
8r	.	8aaa- 8ccc-X	.	.
*	*	*X8va	*	*
8C-XJ	.	8g-XJ	.	.
!	!	!LO:TX:a:B:t=Loco	!	!
8E--L	.	8ggg-XL 8bb--	.	.
8A-	.	8ff-X	.	.
8e--J)	.	8fff-XJ 8aa-	.	.
4.a-	.	8ee--L	.	.
.	.	8eee-- 8gg-	.	.
.	.	8cc-XJ	.	.
4r	.	8ccc-XL 8ee--	.	.
.	.	8a-	.	.
8r	.	8aa-J 8cc-	.	.
!!LO:PB:g=original
=55	=55	=55	=55	=55
*ped	*	*	*	*
!LO:TX:b:t=P:znak pedalizacji przed nutą:problem	!	!	!	!
!	!	!LO:TX:a:B:t=a Tempo	!	!
(>8EE-L	.	8a-L	.	.
8c	.	8aa- 8cc	.	.
8A-	.	8b-J	.	.
8E-	.	8bb-L 8dd-	.	.
8e-	.	8bn	.	.
8A-J)	.	8bbnJ 8dd-	.	<
(>8EE-L	.	8ccL	.	.
8c	.	8ccc 8ee-	.	.
8A-	.	8cc#XJ	.	.
8E-	.	8ccc#XL 8een	.	.
8e-	.	8dd	.	.
8A-J)	.	8dddnyJ 8ff	.	.
*Xped	*	*	*	*
=56	=56	=56	=56	=56
(>8EE-'>L	.	8ee-XL	.	.
8d-	.	8eee- 8gg	.	.
8G	.	8ffJ	.	.
8E-	.	8fffL 8aa-	.	.
8e-	.	8ee-	.	.
8GJ)	.	8eee-J 8gg	.	.
(>8AA-L	.	8ccL	.	.
8c	.	8ccc 8ee-	.	.
8A-	.	8b-J	.	.
8E-	.	8bb-L 8dd-	.	.
8e-	.	8cc	.	.
8A-J)	.	8cccJ 8ee-	.	.
=57	=57	=57	=57	=57
8AA-L	.	8b-L	.	.
8d-	.	8bb- 8dd-	.	.
8G	.	8ccJ	.	.
8E-	.	8cccL 8ee-	.	.
8e-	.	8g	.	.
8GJ	.	8ggJ 8b-	.	.
8AA-L	.	8a-L	.	.
8c	.	8aa- 8cc	.	.
8A-	.	8gJ	.	.
8E-	.	8ggL 8b-	.	.
8e-	.	8a-	.	.
8A-J	.	8aa-J 8cc	.	.
!!LO:LB:g=original
=58	=58	=58	=58	=58
8BB-L	.	8fL	.	.
8dn	.	8ff 8a-	.	.
8B-	.	8gJ	.	.
8A-	.	8ggL/ 8b-	.	.
8d	.	8f	.	.
8B-J	.	8ffJ 8a-	.	.
8EE-	.	8f-XL	.	.
8d-XL	.	8ff-X 8g	.	.
8B-	.	8e-J	.	.
8E-	.	8ee-L/ 8g	.	.
8d-	.	8g	.	.
8B-J	.	8ggJ 8b-	.	.
=59	=59	=59	=59	=59
8AA-L	.	(>8a-L	.	.
8c	.	8aa-J 8cc)	.	.
8A-	.	(>8b-L	.	.
8E-	.	8bb-J 8dd-)	.	.
8e-	.	(>8bnL	.	.
8A-J	.	8bbnJ 8ddn)	.	.
8AA-L	.	(>8ccL	.	.
8c	.	8cccJ 8ee-)	.	.
8A-	.	(>8cc#XL	.	.
8E-	.	8ccc#XJ 8een)	.	.
8e-	.	(>8ddL	.	.
8A-J	.	8dddnyJ 8ff)	.	.
=60	=60	=60	=60	=60
8AA-L	.	(>8ee-L	.	.
8d-	.	8eee-J 8gg)	.	.
8G	.	(>8ffL	.	.
8E-	.	8fffJ 8aa-)	.	.
8e-	.	(>8ee-L	.	.
8GJ	.	8eee-J 8gg)	.	.
8AA-L	.	(>8ccL	.	.
8c	.	8cccJ 8ee-)	.	.
8A-	.	(>8b-L	.	.
8G-X	.	8bb-J 8dd-)	.	.
8e-	.	(>8ccL	.	.
8A-J	.	8cccJ 8ee-)	.	.
!!LO:LB:g=original
=61	=61	=61	=61	=61
*ped	*	*	*	*
!LO:TX:b:t=P:znak pedalizacji przed nutą:problem	!	!	!	!
8D-L	.	8dd-L	.	.
8f	.	8ddd-J 8ff	.	.
8d-	.	8ee-L	.	.
8A-	.	8eee-J 8gg	.	.
*Xped	*	*	*	*
8f	.	8ffL	.	.
8d-J	.	8fffJ 8aa-	.	.
*ped	*	*	*	*
8CL	.	8eenL	.	.
8en	.	8gggJ 8bb-	.	.
8c	.	8ffL	.	.
8B-	.	8aaa-J 8ccc	.	.
8g	.	8ggL	.	.
*Xped	*	*	*	*
8cJ	.	8bbb-J 8ddd-	.	.
=62	=62	=62	=62	=62
*ped	*	*	*	*
8FL	.	8ggL	.	.
8f	.	8bbb-J 8ddd-	.	.
8c	.	8aa-L	.	.
8A-	.	8aaa-J 8ccc	.	.
*Xped	*	*	*	*
8a-	.	8eenL	.	.
8cJ	.	8eeenJ 8gg	.	.
*ped	*	*	*	*
8D-L	.	8eeL	.	.
8f	.	8gggJ 8bb-	.	.
8B-	.	8ffL	.	.
8A-	.	8fffJ 8aa-	.	.
8f	.	8dd-L	.	.
*Xped	*	*	*	*
8B-J	.	8ddd-J 8ff	.	.
=63	=63	=63	=63	=63
*ped	*	*	*	*
8E-L	.	8ffL	.	.
8e-	.	8fffJ 8aa-	.	.
8c	.	8ff-XL	.	.
8A-	.	8fff-XJ 8aa-	.	.
*Xped	*	*	*	*
8a-	.	8ee-L	.	.
8cJ	.	8eee-J 8aa-	.	.
*ped	*	*	*	*
8E-L	.	8ee-L	.	.
8g	.	8eee-J 8gg	.	.
8d-	.	8ddnL	.	.
8B-	.	8dddnJ 8gg	.	.
8g	.	8dd-XL	.	.
*Xped	*	*	*	*
8d-J	.	8ddd-XJ 8gg	.	.
=64	=64	=64	=64	=64
*ped	*	*	*	*
*	*	*8va	*	*
8FL	.	8ddd-L	.	.
8f	.	8dddd-J 8fff	.	.
8c	.	8cccL	.	.
8A-	.	8ccccJ 8fff	.	.
8a-	.	8ggL	.	.
8cJ	.	8gggJ 8bb-	.	.
*ped	*	*	*	*
8DnL	.	8bb-L	.	.
8f	.	8bbb-J 8ddd-	.	.
8Bn	.	8aa-L	.	.
*	*	*X8va	*	*
8A-	.	8aa-J 8cc-	.	.
!	!	!LO:TX:a:B:t=Loco	!	!
8a-	.	8ffL	.	.
*Xped	*	*	*	*
8BJ	.	8fffJ 8aa-	.	.
!!LO:LB:g=original
=65	=65	=65	=65	=65
*ped	*	*	*	*
!LO:TX:b:t=P:znak pedalizacji przed nutą:problem	!	!	!	!
8E-L	.	8ffL	.	.
8a-	.	8fffJ 8aa-	.	.
8e-	.	8ff-XL	.	.
8c	.	8fff-XJ 8aa-	.	.
*Xped	*	*	*	*
8a-	.	8ee-L	.	.
8e-J	.	8eee-J 8aa-	.	.
*ped	*	*	*	*
8E-L	.	8ffnL	.	.
8an	.	8fffnyJ 8aan	.	.
8e-	.	8ff-XL	.	.
8c	.	8fff-XJ 8aa	.	.
8a	.	8ee-L	.	.
*Xped	*	*	*	*
8e-J	.	8eee-J 8aa	.	.
=66	=66	=66	=66	=66
*ped	*	*	*	*
8E-L	.	8ffL	.	.
8b-	.	8fffJ 8bb-	.	.
8e-	.	8ff-XL	.	.
8d-	.	8fff-XJ 8bb-	.	.
*Xped	*	*	*	*
8b-	.	8ee-L	.	.
8e-J	.	8eee-J 8bb-	.	.
*ped	*	*	*	*
8E-L	.	8ee-L	.	.
8g	.	8eee-J 8ccc	.	.
8e-	.	8ee-L	.	.
8d-	.	8eee-J 8ddd-	.	.
8g	.	8ee-L	.	.
*Xped	*	*	*	*
8e-J	.	8eee-J 8gg	.	.
=67	=67	=67	=67	=67
8E-L	.	8ffL	.	.
8a-	.	8fffJ 8aa-	.	.
8e-	.	8ff-XL	.	.
8c	.	8fff-XJ 8aa-	.	.
8a-	.	8ee-L	.	.
8e-J	.	8eee-J 8aa-	.	.
8E-L	.	8ffnL	.	.
8an	.	8fffnyJ 8aan	.	.
8e-	.	8ff-XL	.	.
8c	.	8fff-XJ 8aa	.	.
8a	.	8ee-L	.	.
8e-J	.	8eee-J 8aa	.	.
=68	=68	=68	=68	=68
*ped	*	*	*	*
!LO:TX:b:t=P:znak pedalizacji przed nutą:problem	!	!	!	!
8E-L	.	8ddnL	.	.
8a-X	.	8fffnyJ 8aa-X	.	.
8dn	.	8ggL	.	.
8B-	.	8gggJ 8bb-	.	.
8a-	.	8ffL	.	.
*Xped	*	*	*	*
8dJ	.	8aaa-J 8ccc	.	.
*ped	*	*	*	*
*	*	*8va	*	*
8E-L	.	8ee-L	.	.
8g	.	8bbb-J 8ddd-X	.	.
8e-X	.	8cccL	.	.
8d-X	.	8ccccJ 8eee-	.	.
8g	.	8bb-L	.	.
*Xped	*	*	*	*
8e-J	.	8gggJ 8ddd-	.	.
!!LO:LB:g=original
=69	=69	=69	=69	=69
*ped	*	*	*	*
!LO:TX:b:t=P:znak pedalizacji przed nutą:problem	!	!	!	!
8AA-L	.	8aa-L	.	.
8c	.	8aaa- 8ccc	.	.
!	!	!LO:TX:B:t=Dolciss	!	!
8A-	.	8bb-J	.	.
8E-	.	8bbb-L 8ddd-	.	.
8e-	.	8bbn	.	.
8A-J	.	8bbbnJ 8ddd-	.	.
8AA-L	.	8cccL	.	.
8c	.	8cccc 8eee-	.	.
8A-	.	8ccc#XJ	.	.
8E-	.	8cccc#XL 8eeen	.	.
8e-	.	8ddd	.	.
*Xped	*	*	*	*
8A-J	.	8ddddnyJ 8fff	.	.
=70	=70	=70	=70	=70
*ped	*	*	*	*
8AA-L	.	8eee-XL	.	.
8d-	.	8eeee- 8ggg	.	.
8G	.	8fffJ	.	.
8E-	.	8ffffL 8aaa-	.	.
*Xped	*	*	*	*
8e-	.	8eee-	.	.
8GJ	.	8eeee-J 8ggg	.	.
*ped	*	*	*	*
!	!	!LO:TX:B:t=Sempre	!	!
8AA-L	.	8cccL	.	.
8c	.	8cccc 8eee-	.	.
8A-	.	8bb-J	.	.
8E-	.	8bbb-L 8ddd-	.	.
8e-	.	8ccc	.	.
8A-J	.	8ccccJ 8eee-	.	.
=71	=71	=71	=71	=71
!	!	!LO:TX:b:B:t=dim e legatiss:dur=15e:ext=none:problem:text with extention lines	!	!
8AA-L	.	8bb-L	.	.
8d-	.	8bbb- 8ddd-	.	.
8G	.	8cccJ	.	.
8E-	.	8ccccL 8eee-	.	.
8e-	.	8gg	.	.
8GJ	.	8gggJ 8bb-	.	.
8AA-L	.	8aa-L	.	.
8c	.	8aaa- 8ccc	.	.
8A-	.	8ggJ	.	.
8E-	.	8gggL 8bb-	.	.
8e-	.	8aa-	.	.
8A-J	.	8aaa-J 8ccc	.	.
*	*	*X8va	*	*
=72	=72	=72	=72	=72
!	!	!LO:TX:a:B:t=Loco	!	!
8AA-L	.	8ee-L	.	.
8d-	.	8eee- 8gg	.	.
8G	.	8ffJ	.	.
8E-	.	8fffL 8aa-	.	.
8e-	.	8ee-	.	.
8GJ	.	8eee-J 8gg	.	.
8AA-L	.	8ccL	.	.
8c	.	8ccc 8ee-	.	.
8A-	.	8b-J	.	.
8E-	.	8bb-L 8dd-	.	.
8e-	.	8cc	.	.
8A-J	.	8cccJ 8ee-	.	.
!!LO:LB:g=original
=73	=73	=73	=73	=73
8AA-L	.	8b-L	.	.
8d-	.	8bb- 8dd-	.	.
!	!	!	!	!LO:HP:b=2
8G	.	8ccJ	.	>
8E-	.	8cccL 8ee-	.	.
8e-	.	8g	.	.
8GJ	.	8ggJ 8b-	.	.
8AA-L	.	8a-L	.	.
8c	.	8aa- 8cc	.	.
8A-	.	8dd-J	.	.
8E-	.	8ddd-L 8ff	.	.
8e-	.	8cc	.	.
8A-J	.	8cccJ 8ee-	.	.
=74	=74	=74	=74	=74
8AA-L	.	8a-L	.	.
8c	.	8aa- 8cc	.	.
!	!	!LO:TX:B:t=Smorz	!	!
8A-	.	8dd-J	.	.
8E-	.	8ddd-L 8ff	.	.
8e-	.	8cc	.	.
8A-J	.	8cccJ 8ee-	.	.
8AA-L	.	8a-L	.	.
8c	.	8aa- 8cc	.	.
8A-	.	8dd-J	.	.
8E-	.	8ddd-L 8ff	.	.
8e-	.	8cc	.	.
8A-J	.	8cccJ 8ee-	.	.
=75	=75	=75	=75	=75
2.AA-	.	8a-L	.	.
.	.	8aa- 8cc	.	.
.	.	8aa-J	.	.
.	.	8aaa-L 8ccc	.	.
.	.	8aa-	.	.
.	.	8aa-J 8cc	.	.
4r	.	8a-L	.	.
.	.	8a- 8c	.	.
8r	.	8A-J	.	.
4.D-^< 4.DD-	.	8a-L 8f-X 8d-	.	.
.	.	8a-	.	.
.	.	8aa-J 8ff-X 8dd-	.	.
=76	=76	=76	=76	=76
*	*	*^	*	*
[<1.AA- [<1.AAA-	.	8a-L\	2.rAyy	.	.
.	.	8aa- 8ee- 8cc	.	.	.
.	.	8aa-J	.	.	.
.	.	8aaa-L 8eee- 8ccc	.	.	.
.	.	8aa-	.	.	.
.	.	8aa-J 8ee- 8cc	.	.	.
.	.	8rddyy	8a-L	.	.
.	.	N[>2a-	8c 8e-	.	.
.	.	.	8A-J	.	.
.	.	.	8B-L 8d-	.	.
.	.	.	N(<8A- 8c	.	.
.	.	8a-yy	8d-J 8B-	.	.
*	*	*v	*v	*	*
=77	=77	=77	=77	=77
1.AA-] 1.AAA-]	.	1.a-N] 1.e- 1.c 1.A-<N)	.	.
==	==	==	==	==
*-	*-	*-	*-	*-
!!title: @{OTL}; @{OPS} @{ONM} publisher: @{PPR}
!!!RDF**kern: > = above
!!!RDF**kern: < = below
!!!RDF**kern: N = linked
!!!RDF**dynam: < = "Cres", fontstyle="bold"
!!!RDF**dynam: > = "Dim", fontstyle="bold"
!!!ENC: Marta Lawrence
!!!END: 2018-09-27
!!!EED: Leszek Kubiak
!!!EST: 2018-10-01
!!!EED2: Wojciech Jakubiak-Danek
!!!EST2: 2019-10-13
!!!rism-genre: Etude
!!!rism-key: A-flat major
!!!rism-opus: op.  10, no. 10
!!!rism-title: Etude in A-flat major op.  10, no. 10
!!!rism-permalink: https://opac.rism.info/search?id=300605133&View=rism
!!!rism-773a-OPR: 300605123
!!!rism-parent-permalink: https://opac.rism.info/search?id=300605123&View=rism
